azure-patterns/svg-partners-people.svg

<svg xmlns="http://www.w3.org/2000/svg" viewBox="0 0 39 41">
                                
                            
    <rect width="39" height="41" fill-opacity="0"></rect>
    <path d="M32.8192 14.7984C33.7623 15.2682 34.6147 15.8484 35.3764 16.5388C36.1381 17.2293 36.7874 17.998 37.3242 18.8451C37.861 19.6921 38.2746 20.6032 38.5647 21.5784C38.8549 22.5536 39 23.5608 39 24.6H36.2143C36.2143 23.4753 35.993 22.4148 35.5505 21.4182C35.108 20.4217 34.5095 19.5533 33.755 18.813C33.0006 18.0727 32.1155 17.4855 31.0999 17.0513C30.0843 16.6171 29.0033 16.4 27.8571 16.4C26.7109 16.4 25.63 16.6171 24.6144 17.0513C23.5988 17.4855 22.7137 18.0727 21.9593 18.813C21.2048 19.5533 20.6063 20.4217 20.1638 21.4182C19.7213 22.4148 19.5 23.4753 19.5 24.6C19.5 25.8955 19.1989 27.1269 18.5968 28.2943C17.9947 29.4616 17.1641 30.4297 16.1049 31.1984C17.048 31.6682 17.9004 32.2484 18.6621 32.9388C19.4238 33.6293 20.0731 34.398 20.6099 35.2451C21.1468 36.0921 21.5603 37.0032 21.8504 37.9784C22.1406 38.9536 22.2857 39.9608 22.2857 41H19.5C19.5 39.8753 19.2787 38.8148 18.8362 37.8182C18.3937 36.8217 17.7952 35.9533 17.0407 35.213C16.2863 34.4727 15.4012 33.8855 14.3856 33.4513C13.37 33.0171 12.2891 32.8 11.1429 32.8C9.99665 32.8 8.91574 33.0171 7.90011 33.4513C6.88449 33.8855 5.99944 34.4727 5.24498 35.213C4.49051 35.9533 3.89202 36.8217 3.4495 37.8182C3.00698 38.8148 2.78571 39.8753 2.78571 41H0C0 39.9608 0.145089 38.9536 0.435268 37.9784C0.725446 37.0032 1.13895 36.0921 1.67578 35.2451C2.21261 34.398 2.86189 33.6293 3.6236 32.9388C4.38532 32.2484 5.23772 31.6682 6.1808 31.1984C5.12165 30.4297 4.29102 29.4616 3.68889 28.2943C3.08677 27.1269 2.78571 25.8955 2.78571 24.6C2.78571 23.4753 3.00698 22.4148 3.4495 21.4182C3.89202 20.4217 4.49051 19.5533 5.24498 18.813C5.99944 18.0727 6.88449 17.4855 7.90011 17.0513C8.91574 16.6171 9.99665 16.4 11.1429 16.4C12.4632 16.4 13.7182 16.6954 14.9079 17.2862C16.0977 17.877 17.0843 18.692 17.8677 19.7313C18.4191 18.6635 19.1228 17.7097 19.9788 16.8698C20.8348 16.0299 21.8069 15.3394 22.8951 14.7984C21.8359 14.0297 21.0053 13.0616 20.4032 11.8943C19.8011 10.7269 19.5 9.49549 19.5 8.2C19.5 7.07535 19.7213 6.01476 20.1638 5.01823C20.6063 4.0217 21.2048 3.1533 21.9593 2.41302C22.7137 1.67274 23.5988 1.0855 24.6144 0.651303C25.63 0.2171 26.7109 -9.62957e-07 27.8571 -9.62957e-07C29.0033 -9.62957e-07 30.0843 0.2171 31.0999 0.651303C32.1155 1.0855 33.0006 1.67274 33.755 2.41302C34.5095 3.1533 35.108 4.0217 35.5505 5.01823C35.993 6.01476 36.2143 7.07535 36.2143 8.2C36.2143 9.49549 35.9132 10.7269 35.3111 11.8943C34.709 13.0616 33.8783 14.0297 32.8192 14.7984ZM11.1429 30.0667C11.8973 30.0667 12.6155 29.9207 13.2974 29.6289C13.9794 29.3371 14.5706 28.9456 15.0711 28.4544C15.5717 27.9633 15.9707 27.3867 16.2681 26.7247C16.5656 26.0628 16.7143 25.3545 16.7143 24.6C16.7143 23.8597 16.5656 23.155 16.2681 22.4859C15.9707 21.8168 15.5717 21.2367 15.0711 20.7456C14.5706 20.2544 13.9794 19.8629 13.2974 19.5711C12.6155 19.2793 11.8973 19.1333 11.1429 19.1333C10.3739 19.1333 9.65206 19.2793 8.9774 19.5711C8.30273 19.8629 7.71512 20.2544 7.21456 20.7456C6.71401 21.2367 6.31501 21.8168 6.01758 22.4859C5.72014 23.155 5.57143 23.8597 5.57143 24.6C5.57143 25.3545 5.72014 26.0628 6.01758 26.7247C6.31501 27.3867 6.71401 27.9633 7.21456 28.4544C7.71512 28.9456 8.30273 29.3371 8.9774 29.6289C9.65206 29.9207 10.3739 30.0667 11.1429 30.0667ZM22.2857 8.2C22.2857 8.95451 22.4344 9.66276 22.7319 10.3247C23.0293 10.9867 23.4283 11.5633 23.9288 12.0544C24.4294 12.5456 25.017 12.9371 25.6917 13.2289C26.3663 13.5207 27.0882 13.6667 27.8571 13.6667C28.6116 13.6667 29.3298 13.5207 30.0117 13.2289C30.6936 12.9371 31.2849 12.5456 31.7854 12.0544C32.286 11.5633 32.685 10.9867 32.9824 10.3247C33.2799 9.66276 33.4286 8.95451 33.4286 8.2C33.4286 7.45972 33.2799 6.75503 32.9824 6.08594C32.685 5.41684 32.286 4.83672 31.7854 4.34557C31.2849 3.85443 30.6936 3.46293 30.0117 3.17109C29.3298 2.87925 28.6116 2.73333 27.8571 2.73333C27.0882 2.73333 26.3663 2.87925 25.6917 3.17109C25.017 3.46293 24.4294 3.85443 23.9288 4.34557C23.4283 4.83672 23.0293 5.41684 22.7319 6.08594C22.4344 6.75503 22.2857 7.45972 22.2857 8.2Z"></path>
</svg>

<svg xmlns="http://www.w3.org/2000/svg" viewBox="0 0 39 41"><path fill="none" d="M0 0h39v41H0z"/><path d="M32.82 14.798a11.266 11.266 0 0 1 4.504 4.047c.537.847.95 1.758 1.24 2.733.29.976.436 1.983.436 3.022h-2.786a7.752 7.752 0 0 0-.663-3.182 8.37 8.37 0 0 0-1.796-2.605 8.546 8.546 0 0 0-2.655-1.762 8.162 8.162 0 0 0-3.243-.651 8.162 8.162 0 0 0-3.243.651 8.546 8.546 0 0 0-2.655 1.762 8.37 8.37 0 0 0-1.795 2.605A7.752 7.752 0 0 0 19.5 24.6a7.95 7.95 0 0 1-.903 3.694 8.162 8.162 0 0 1-2.492 2.904 11.266 11.266 0 0 1 4.505 4.047c.537.847.95 1.758 1.24 2.733.29.976.436 1.983.436 3.022H19.5a7.752 7.752 0 0 0-.664-3.182 8.37 8.37 0 0 0-1.795-2.605 8.546 8.546 0 0 0-2.655-1.762 8.162 8.162 0 0 0-3.243-.651 8.162 8.162 0 0 0-3.243.651 8.547 8.547 0 0 0-2.655 1.762 8.37 8.37 0 0 0-1.796 2.605A7.752 7.752 0 0 0 2.787 41H0c0-1.04.145-2.046.435-3.022.29-.975.704-1.886 1.24-2.733a11.267 11.267 0 0 1 4.505-4.047 8.163 8.163 0 0 1-2.491-2.904 7.95 7.95 0 0 1-.903-3.694c0-1.125.221-2.185.663-3.182a8.37 8.37 0 0 1 1.796-2.605A8.547 8.547 0 0 1 7.9 17.051a8.162 8.162 0 0 1 3.243-.651c1.32 0 2.575.295 3.765.886a8.24 8.24 0 0 1 2.96 2.445 11.151 11.151 0 0 1 2.11-2.861 11.35 11.35 0 0 1 2.917-2.072 8.162 8.162 0 0 1-2.492-2.904A7.95 7.95 0 0 1 19.5 8.2c0-1.125.221-2.185.664-3.182a8.37 8.37 0 0 1 1.795-2.605A8.546 8.546 0 0 1 24.614.651 8.162 8.162 0 0 1 27.857 0c1.146 0 2.227.217 3.243.651a8.546 8.546 0 0 1 2.655 1.762 8.37 8.37 0 0 1 1.795 2.605c.443.997.664 2.057.664 3.182a7.95 7.95 0 0 1-.903 3.694 8.163 8.163 0 0 1-2.492 2.904zM11.142 30.067a5.42 5.42 0 0 0 2.154-.438 5.71 5.71 0 0 0 1.774-1.175c.5-.49.9-1.067 1.197-1.73.298-.661.446-1.37.446-2.124 0-.74-.148-1.445-.446-2.114a5.593 5.593 0 0 0-1.197-1.74 5.71 5.71 0 0 0-1.774-1.175 5.42 5.42 0 0 0-2.154-.438c-.77 0-1.49.146-2.166.438a5.747 5.747 0 0 0-1.762 1.175c-.501.49-.9 1.07-1.197 1.74A5.147 5.147 0 0 0 5.57 24.6c0 .755.15 1.463.447 2.125a5.63 5.63 0 0 0 1.197 1.73c.5.49 1.088.882 1.762 1.174a5.396 5.396 0 0 0 2.166.438zM22.286 8.2c0 .755.148 1.463.446 2.125a5.63 5.63 0 0 0 1.197 1.73c.5.49 1.088.882 1.763 1.174a5.396 5.396 0 0 0 2.165.438 5.42 5.42 0 0 0 2.155-.438 5.711 5.711 0 0 0 1.773-1.175c.501-.49.9-1.067 1.197-1.73.298-.661.447-1.37.447-2.124 0-.74-.15-1.445-.447-2.114a5.594 5.594 0 0 0-1.197-1.74 5.713 5.713 0 0 0-1.773-1.175 5.42 5.42 0 0 0-2.155-.438c-.769 0-1.49.146-2.165.438a5.749 5.749 0 0 0-1.763 1.175c-.5.49-.9 1.07-1.197 1.74a5.146 5.146 0 0 0-.446 2.114z"/></svg>
